X: 776
T: Paddy Whack
C:late 18th C. Irish, Scottish, English, American
B: jims roots
M:6/8
L:1/8
Q: 3/8=100
K:G
V:1 
G | "G"GBd gfg | "C"edc "G"BAG | GBe "C"efg | "D"fdd d2f | "G"gbg "D"afd |
"C"cde "G"dBG | GAB "C"cAd | "G"BGG G2 :||: c | "G"BGB "C"cde | "G"dBG "D"A2G |
"G"GBd "C"efg | "D"fdd def | "G"gbg "D"afd | "C"cde "G"dBG | "G"GAB "C"cAd | "G"BGG G2 :|
% abcbook-tune_id 6298c279e7d0538f26a64945


% abcbook-boost 0
% abcbook-tablature 
% abcbook-transpose 
% abcbook-lastupdated 1654178426350
% abcbook-soundfonts 
% abcbook-repeats 1


